app/assets/icons/hf/hf16.svg

<svg id="Слой_1" data-name="Слой 1" xmlns="http://www.w3.org/2000/svg" viewBox="0 0 80 77.17"><defs><style>.cls-1{fill:#0097e8}</style></defs><path class="cls-1" d="M100.82 29.94H87.07v-2.32a2.75 2.75 0 0 0-5.49 0v2.32H66.3v-2.32a2.74 2.74 0 1 0-5.48 0v2.32H45.54v-2.32a2.74 2.74 0 0 0-5.48 0v2.32H26.31a2.75 2.75 0 0 0-2.75 2.74v66.63a2.74 2.74 0 0 0 2.75 2.74h74.51a2.73 2.73 0 0 0 2.74-2.74V32.68a2.74 2.74 0 0 0-2.74-2.74zm-2.74 66.63h-69V35.42h11v4.32a2.74 2.74 0 0 0 5.48 0v-4.32h15.26v4.32a2.74 2.74 0 1 0 5.48 0v-4.32h15.29v4.32a2.74 2.74 0 1 0 5.48 0v-4.32h11zm0 0" transform="translate(-23.56 -24.88)"/><path class="cls-1" d="M85.65 71.33a2.2 2.2 0 0 0 0-4.39h-6.17v-6.31a2.19 2.19 0 1 0-4.38 0v6.31h-9.34v-6.31a2.2 2.2 0 0 0-4.39 0v6.31H52v-6.31a2.19 2.19 0 1 0-4.38 0v6.31h-6.14a2.2 2.2 0 0 0 0 4.39h6.17v6.84h-6.17a2.19 2.19 0 0 0 0 4.38h6.17v6.31a2.19 2.19 0 1 0 4.38 0v-6.31h9.34v6.31a2.2 2.2 0 1 0 4.39 0v-6.31h9.34v6.31a2.19 2.19 0 1 0 4.38 0v-6.31h6.17a2.19 2.19 0 0 0 0-4.38h-6.17v-6.84zM52 78.17v-6.84h9.34v6.84zm23.07 0h-9.31v-6.84h9.34zM44.88 53.48h37.37a2.2 2.2 0 0 0 0-4.39H44.88a2.2 2.2 0 0 0 0 4.39zm0 0" transform="translate(-23.56 -24.88)"/></svg>

<svg id="Слой_1" data-name="Слой 1" xmlns="http://www.w3.org/2000/svg" viewBox="0 0 80 77.17"><defs><style>.cls-1{fill:#0097e8;}</style></defs><title>16</title><path class="cls-1" d="M100.82,29.94H87.07V27.62a2.75,2.75,0,0,0-5.49,0v2.32H66.3V27.62a2.74,2.74,0,1,0-5.48,0v2.32H45.54V27.62a2.74,2.74,0,0,0-5.48,0v2.32H26.31a2.75,2.75,0,0,0-2.75,2.74V99.31a2.74,2.74,0,0,0,2.75,2.74h74.51a2.73,2.73,0,0,0,2.74-2.74V32.68a2.74,2.74,0,0,0-2.74-2.74ZM98.08,96.57h-69V35.42h11v4.32a2.74,2.74,0,0,0,5.48,0V35.42H60.82v4.32a2.74,2.74,0,1,0,5.48,0V35.42H81.59v4.32a2.74,2.74,0,1,0,5.48,0V35.42h11Zm0,0" transform="translate(-23.56 -24.88)"/><path class="cls-1" d="M85.65,71.33a2.2,2.2,0,0,0,0-4.39H79.48V60.63a2.19,2.19,0,1,0-4.38,0v6.31H65.76V60.63a2.2,2.2,0,0,0-4.39,0v6.31H52V60.63a2.19,2.19,0,1,0-4.38,0v6.31H41.48a2.2,2.2,0,0,0,0,4.39h6.17v6.84H41.48a2.19,2.19,0,0,0,0,4.38h6.17v6.31a2.19,2.19,0,1,0,4.38,0V82.55h9.34v6.31a2.2,2.2,0,1,0,4.39,0V82.55H75.1v6.31a2.19,2.19,0,1,0,4.38,0V82.55h6.17a2.19,2.19,0,0,0,0-4.38H79.48V71.33ZM52,78.17V71.33h9.34v6.84Zm23.07,0H65.76V71.33H75.1Zm0,0" transform="translate(-23.56 -24.88)"/><path class="cls-1" d="M44.88,53.48H82.25a2.2,2.2,0,0,0,0-4.39H44.88a2.2,2.2,0,0,0,0,4.39Zm0,0" transform="translate(-23.56 -24.88)"/></svg>
